X:33
T:B033-  Bonny Dundee
Q:1/4=120
L:1/4
M:6/4
K:Gm
D|\
DGGG2B|AFFA/2B/2 cc|d2de3/2f/2g|d3/2c/2 B/2A/2G2:|\
f|f3/2g/2 a/2g/2 f3/2g/2 a/2g/2|f2FA/2G/2cc|\
=e/2^f/2ggg2b|a3/2g/2 f/2e/2d2e|\
f3/2g/2 a/2g/2f3/2g/2 a/2g/2|f2FA/2B/2cc|d2d=e3/2^f/2g|\
d3/2c/2 B/2A/2.G2|]

